resources/godot_icons/light/ViewportTexture.svg

<svg height="16" viewBox="0 0 16 16" width="16" xmlns="http://www.w3.org/2000/svg"><path d="m3 2c-.5304.0000801-1.0391.21085-1.4141.58594-.37509.37501-.58586.88366-.58594 1.4141v8c.0000803.5304.21085 1.0391.58594 1.4141.37501.37509.88366.58586 1.4141.58594h10c1.1046 0 2-.89543 2-2v-8c0-1.1046-.89543-2-2-2h-10zm0 1h10c.55228.0000096.99999.44772 1 1v8c-.00001.55228-.44772.99999-1 1h-10c-.55228-.00001-.99999-.44772-1-1v-8c.0000096-.55228.44772-.99999 1-1zm6 3v1h-1v1h-2v1h-1v1h-1v1h2 2 2 2v-2h-1v-1-1h-1v-1z" fill="#4f4f4f"/></svg>

<svg height="16" viewBox="0 0 16 16" width="16" xmlns="http://www.w3.org/2000/svg"><path d="M3 2a2 2 0 0 0-2 2v8a2 2 0 0 0 2 2h10a2 2 0 0 0 2-2V4a2 2 0 0 0-2-2H3zm0 1h10a1 1 0 0 1 1 1v8a1 1 0 0 1-1 1H3a1 1 0 0 1-1-1V4a1 1 0 0 1 1-1zm6 3v1H8v1H6v1H5v1H4v1h8V9h-1V7h-1V6z" fill="#4f4f4f"/></svg>
